X: 8122
T: Controversial Culloden News Article, The
R: strathspey
M: 4/4
K: Dminor
f<A A>c =B>A c<e|f<A A>a ^g>a f>=g|e<A A>c d>e f<g|1 f>e d<^c d2 d>e:|
[2 f>e d<^c d3 c||d<D D>F G>A B<c|A<D D>d ^c>d B>c|1 A<D D>F G>A B<c|
B>A G<^F G2 G>A:|2 A<D D2 D>E F<G|F>E D<^C D3 E||F>E D<A, A,>G ^F>G|
G<G, G,>F E>F G>E|F<A, A,>=B, C>D E<G|1 F>E D<^C D2 D>E:|2 F>E D<^C D2 D2||

